static/images/mobile/copyright/wikipedia-wordmark-mad.svg

<?xml version="1.0" encoding="UTF-8"?>
<svg width="120px" height="22px" viewBox="0 0 120 22" version="1.1" xmlns="http://www.w3.org/2000/svg" xmlns:xlink="http://www.w3.org/1999/xlink">
    <title>wikipedia-wordmark-mad</title>
    <g id="Page-1" stroke="none" stroke-width="1" fill="none" fill-rule="evenodd">
        <path d="M18.1347272,0.285859699 C18.2037015,0.285936789 18.2719225,0.286020204 18.339184,0.286108758 L18.7295912,0.286692269 C18.7921906,0.286796636 18.8534184,0.286903771 18.9130684,0.287012488 L19.2503863,0.287674274 C19.3029008,0.287784572 19.3534253,0.287894079 19.4017538,0.288001609 L19.7718505,0.288883991 C19.8051474,0.288968987 19.8356299,0.289048449 19.8630919,0.28912119 L20.0344594,0.289595589 L20.0926246,0.344001892 L20.0926246,0.844506943 C20.0926246,0.982188583 20.0143683,1.05081916 19.8612036,1.05081916 C19.1079332,1.08639055 18.9539315,1.16129899 18.6773148,1.55760207 C18.5279158,1.77479474 18.2299559,2.23972973 17.9227896,2.76157789 L15.2800691,7.70469884 L15.2449958,7.77788336 L15.2058099,7.85958451 L18.4341764,14.4685736 L18.630026,14.5221389 L23.718779,2.445975 C23.8957977,1.9596969 23.8685959,1.61444961 23.6405201,1.41148523 C23.4128661,1.21354259 23.2525866,1.09594795 22.6633626,1.07209531 L22.1850363,1.04866048 C22.1268644,1.04866048 22.07121,1.02731469 22.0176433,0.986725567 C21.9657519,0.949899404 21.9385541,0.90009704 21.9385541,0.841093492 L21.9385541,0.338077567 L22.0105325,0.287016418 L27.7592345,0.287016418 L27.8174064,0.338077567 L27.8174064,0.841093492 C27.8174064,0.977519026 27.7404063,1.04615094 27.5859855,1.04615094 C26.8327163,1.07921414 26.2752968,1.24325528 25.913309,1.53493858 C25.5517404,1.82787664 25.2680088,2.23380541 25.0654623,2.7590014 C25.0654623,2.7590014 23.6210505,6.06475874 22.0625172,9.61364091 L21.7944704,10.2238309 C20.630241,12.8733553 19.444984,15.5604692 18.784033,17.0296899 C18.1722112,18.1968396 17.5695959,18.0901254 17.038959,16.9966267 C16.6048898,16.1023629 15.8650264,14.5030738 15.1217795,12.8799699 L14.8873102,12.3674136 C14.5741013,11.6820626 14.2659806,11.005277 13.9858215,10.3885818 C13.7054021,10.9666433 13.3979034,11.5987499 13.0835312,12.241395 L12.8373975,12.7438 C12.7962599,12.8276399 12.755094,12.9114701 12.7139434,12.9951968 L12.4675751,13.4955652 C11.7720411,14.9055049 11.1062791,16.2313236 10.6855447,17.0121794 C9.97035781,18.2538184 9.3819708,18.0914471 8.91326883,17.0439838 C7.28704422,13.2064954 3.94755,6.46850079 2.37572795,2.69294597 C2.08530076,1.99659135 1.86601556,1.55048859 1.65928499,1.37346991 C1.45046204,1.19938126 1.01900604,1.09349733 0.361569311,1.05918874 C0.120941137,1.03198827 -9.93486225e-16,0.97382034 -1.00512014e-15,0.878822231 L-1.0694381e-15,0.353626243 L0.0581692679,0.3013197 C0.0896662675,0.3011464 0.124717115,0.300983295 0.163085513,0.300829934 L0.431216142,0.300023101 C0.481909559,0.299906919 0.535447934,0.299799581 0.59159497,0.299700638 L1.16097217,0.29902468 C1.23064451,0.29897206 1.30221662,0.298926487 1.37545221,0.298887509 L3.33151006,0.298988251 C3.4162383,0.299026029 3.50073964,0.299066805 3.5847778,0.29911013 L4.78107375,0.299894926 C4.85457258,0.299952492 4.92642674,0.300010359 4.99639993,0.300068075 L6.00173266,0.300993639 C6.04062755,0.301033366 6.07622369,0.301070245 6.10828478,0.301103825 L6.30821284,0.3013197 L6.36638479,0.353626243 L6.36638479,0.854132632 C6.36638479,0.991816951 6.27850283,1.05918874 6.10567028,1.05918874 L5.45409159,1.08555627 C4.89416143,1.10899111 4.61419622,1.27638409 4.61419622,1.58606132 C4.61419622,1.73085644 4.67362133,1.96562524 4.80293205,2.28116252 C5.32138938,3.54319175 6.3656484,5.8441415 7.41179017,8.10812486 L7.67306164,8.67272794 C9.06348462,11.6731957 10.3796371,14.4485549 10.3796371,14.4485549 L10.5374044,14.4899877 L13.3245027,8.93025745 C12.9836295,8.17725497 12.7662483,7.69500619 12.7662483,7.69500619 L10.8504321,3.92865925 L10.822439,3.87302335 C10.7338602,3.6928626 10.4592894,3.13500165 10.3532736,2.92645733 C9.51254164,1.25754785 9.53011777,1.16966589 8.67976015,1.05709434 C8.44122437,1.02612019 8.31777236,0.995159427 8.31777236,0.876727827 L8.31777236,0.348601815 L8.38890712,0.297540666 L8.72018593,0.297140077 C8.77905824,0.297077862 8.83962919,0.297017869 8.90170236,0.296960018 L10.3586913,0.296032901 C10.4321707,0.296001159 10.5057774,0.295971004 10.5793149,0.295942356 L13.3487686,0.295398053 L13.4805928,0.339335013 L13.4805928,0.864531001 C13.4805928,0.984637858 13.3939643,1.04615362 13.2194592,1.04615362 L12.8599823,1.09846016 C11.9514554,1.16834952 12.0995983,1.54079728 12.7034697,2.74268004 L14.541,6.503 L16.5752774,2.44855818 C16.8932112,1.75644326 16.8531638,1.54807941 16.7327702,1.38353375 L16.7058429,1.34878433 C16.6250758,1.25253413 16.3547356,1.09853114 15.7650925,1.07342239 L15.5336715,1.04872877 C15.4755076,1.04872877 15.4210986,1.02864177 15.3675333,0.989298041 C15.3156419,0.951215772 15.2892743,0.902672193 15.2892743,0.842411199 L15.2892743,0.341487 L15.3604225,0.289595589 C15.6584401,0.287600742 16.0332178,0.286431349 16.4402357,0.285831235 Z M28.8033496,5.60234975 L28.9217829,5.60266413 C29.6298549,5.60266413 31.651547,5.55035759 31.651547,5.55035759 L31.6774994,5.60266413 L31.6774994,6.18017068 C31.6774994,6.25884476 31.6251928,6.31199496 31.5197321,6.31199496 L30.9681712,6.36556028 C30.154222,6.44256044 29.8663057,6.6534766 29.8663057,7.1790904 L29.866299,15.9220286 C29.866299,16.498279 30.1295243,16.8401798 30.9694193,16.9184361 L31.5197254,16.9728451 C31.5992297,16.9728451 31.6774994,17.0239062 31.6774994,17.1281015 L31.6774994,17.6796623 L31.6515403,17.7332277 C31.6515403,17.7332277 29.8334839,17.6844212 28.9602811,17.6799843 L28.8422638,17.6796623 C28.1082447,17.6796623 26.060607,17.7332277 26.060607,17.7332277 L26.0070416,17.6796623 L26.0070416,17.1281015 C26.0070416,17.0239035 26.0865594,16.9728451 26.1911738,16.9728451 L26.7167889,16.9184361 C27.5826296,16.8401771 27.8446002,16.4200228 27.8446002,15.9220286 L27.8446002,7.18033713 C27.8446002,6.60366754 27.5290643,6.44380718 26.7167889,6.36764264 L26.1911738,6.31324704 C26.0865473,6.31324704 26.0070416,6.2881383 26.0070416,6.20779031 L26.0070416,5.60266413 L26.0346679,5.55035759 C26.0346679,5.55035759 27.9240281,5.59801707 28.8033496,5.60234975 Z M37.6136746,15.9220286 C37.6136746,16.498279 37.9539002,16.7878693 38.7155402,16.9184361 L39.0051305,16.9728451 C39.0833894,16.9979538 39.1628977,17.0239062 39.1628977,17.1281015 L39.1628977,17.6796623 L39.1352848,17.7332277 C39.1352848,17.7332277 37.4818584,17.6796623 36.694274,17.6796623 C35.9598358,17.6796623 33.8067413,17.7332277 33.8067413,17.7332277 L33.7544347,17.6796623 L33.7544347,17.1281015 C33.7544347,17.0239035 33.8331088,16.9728451 33.9385669,16.9728451 L34.464182,16.9184361 C35.2505116,16.8401771 35.5919933,16.4200228 35.5919933,15.9220286 L35.5919933,7.18033713 C35.5919933,6.60366754 35.304077,6.44380718 34.464182,6.36764264 L33.9385669,6.31324704 C33.8331101,6.31324704 33.7544347,6.2881383 33.7544347,6.20779031 L33.7544347,5.60266413 L33.7808022,5.55035759 C33.7808022,5.55035759 35.9338968,5.60266413 36.7461721,5.60266413 C37.4831212,5.60266413 39.1352915,5.55035759 39.1352915,5.55035759 L39.1616591,5.60266413 L39.1616591,6.18017068 C39.1616591,6.25884476 39.1093525,6.28479716 39.0038904,6.31199496 L38.7155563,6.36556028 C37.901607,6.52207281 37.6136907,6.6534766 37.6136907,7.1790904 L37.6136907,11.1437991 C38.4795314,11.1437991 38.9775269,10.6989511 40.1329578,9.46400784 C41.182932,8.30732083 41.9968812,7.33811514 41.9968812,6.83886486 C41.9968812,6.62753089 41.7608563,6.3927621 41.2352425,6.31324972 C41.1306161,6.28729732 41.0774739,6.2596844 41.0774739,6.18142545 L41.0774739,5.57671709 L41.1046717,5.55160834 C41.1046717,5.55160834 43.2305644,5.60391489 43.9917853,5.60391489 C44.6739129,5.60391489 45.8285069,5.55160834 45.8285069,5.55160834 L45.9075961,5.57671709 L45.9075961,6.18142545 C45.9075961,6.2596844 45.8285069,6.31324972 45.6979361,6.31324972 C44.6739089,6.39150867 43.9645794,6.44381521 43.0204825,7.51973642 L40.7631847,10.1176789 C40.3170819,10.5918205 40.1593146,10.8788998 40.1593146,11.0902324 C40.1593146,11.2480011 40.2635126,11.3773118 40.3953382,11.5350804 L44.358373,16.3133193 C44.6739089,16.6786549 45.3041438,16.8376783 45.8285029,16.9418803 L45.959912,16.966989 C46.038171,16.9929414 46.1440455,17.045248 46.1440455,17.1247563 L46.1440455,17.6763172 L46.0653714,17.7022562 C46.0653714,17.7022562 44.6739156,17.6763172 43.9398965,17.6763172 C43.2824598,17.6763172 42.3383615,17.7022562 42.3383615,17.7022562 L42.3124091,17.6763172 L42.3124091,17.3607812 C42.3124091,17.0180435 42.2847962,16.7322189 41.9186169,16.3120632 L39.0038824,12.6880005 C38.6100902,12.1628032 38.1899331,12.0334924 37.6136827,12.0334924 L37.6136827,15.9207805 L37.6136827,15.9207805 L37.6136746,15.9220286 Z M51.7655138,15.9220286 C51.7655138,16.498279 52.0274844,16.8401798 52.8673793,16.9184361 L53.4189402,16.9728451 C53.4971991,16.9728451 53.5767075,17.0239062 53.5767075,17.1281015 L53.5767075,17.6796623 L53.5495097,17.7332277 C53.5495097,17.7332277 51.5554372,17.6796623 50.7419071,17.6796623 C50.0062141,17.6796623 47.9589955,17.7332277 47.9589955,17.7332277 L47.906689,17.6796623 L47.906689,17.1281015 C47.906689,17.0239035 47.9849479,16.9728451 48.090402,16.9728451 L48.6147623,16.9184361 C49.480603,16.8401771 49.7442475,16.4200228 49.7442475,15.9220286 L49.7442475,7.18033713 C49.7442475,6.60366754 49.4287116,6.44380718 48.6147623,6.36764264 L48.090402,6.31324704 C47.9849452,6.31324704 47.906689,6.2881383 47.906689,6.20779031 L47.906689,5.60266413 L47.932628,5.55035759 C47.932628,5.55035759 50.0062114,5.60266413 50.8201607,5.60266413 C51.5282341,5.60266413 53.549507,5.55035759 53.549507,5.55035759 L53.5758745,5.60266413 L53.5758745,6.18017068 C53.5758745,6.25884476 53.523568,6.31199496 53.4181072,6.31199496 L52.8673834,6.36556028 C52.0538519,6.44256044 51.7642617,6.6534766 51.7642617,7.1790904 L51.7642617,15.9207818 L51.7655138,15.9220286 Z M57.4367951,7.23139158 C57.4367951,6.41744232 57.0953134,6.39149661 55.8616249,6.31324035 C55.7038576,6.31324035 55.6779106,6.2349814 55.6779106,6.18141608 L55.6779106,5.57754467 L55.729802,5.55159227 C56.1235942,5.55159227 57.6728186,5.60389882 58.4344573,5.60389882 C59.1688942,5.60389882 60.2197054,5.55159227 61.1901672,5.55159227 C64.9163401,5.55159227 65.5984678,7.38789474 65.5984678,8.75466095 C65.5984678,10.3310859 64.8368291,12.7972068 61.1119109,12.7972068 C60.4561481,12.7972068 59.9305343,12.7440566 59.4572297,12.5352362 L59.4572297,16.0500845 C59.4572297,16.6275911 59.7727656,16.7606688 60.6126606,16.8899795 L61.1391127,16.9694972 C61.2437392,16.9954362 61.3232449,17.0226474 61.3232449,17.1260098 L61.3232449,17.6775693 L61.2968773,17.7307195 C61.2968773,17.7307195 59.1973481,17.6775693 58.3833989,17.6775693 C57.6493785,17.6775693 55.6799983,17.7307195 55.6799983,17.7307195 L55.6540459,17.6775693 L55.6540459,17.1260098 C55.6540459,17.0213833 55.7063524,16.9954443 55.8105584,16.9694972 L56.3621193,16.8899795 C57.1760685,16.785353 57.4380391,16.5493348 57.4380391,16.0500845 L57.4367951,7.23139158 Z M59.4584858,11.7995526 C59.982427,12.0108865 60.6398638,12.0355775 61.1642228,12.0355775 C62.740649,12.0355775 63.4985208,11.0889683 63.4985208,9.07020626 C63.4985208,6.81249063 62.4749115,6.31449512 61.0324012,6.31449512 C59.7715122,6.31449512 59.457231,6.55052002 59.457231,7.23264769 L59.4584858,11.8008073 L59.4584858,11.8008073 L59.4584858,11.7995526 Z M72.0824449,-7.10542736e-15 C71.1889833,-7.10542736e-15 70.5888789,0.473309933 70.3775449,0.631078572 L70.3147663,0.914390948 L73.3123611,3.78644063 C73.7337729,4.18023283 73.9116285,4.29071266 74.0693958,4.29071266 C74.280312,4.29071266 74.4799286,4.13754662 74.4799286,4.00698114 C74.4799286,3.82326679 74.453561,3.63829768 74.3221599,3.37590792 L72.4917148,0.0627785643 C72.3870883,0.0368395543 72.2130064,-7.10542736e-15 72.0824396,-7.10542736e-15 L72.0824449,-7.10542736e-15 Z M67.5711971,5.55285641 L67.5389776,5.61563498 L67.5389776,6.18393499 C67.5389776,6.20988739 67.5389776,6.2517353 67.6967449,6.27767431 L68.2960137,6.34045287 C69.0312875,6.3940182 69.3376169,6.55764555 69.3376169,7.16151561 L69.3376169,16.0902585 C69.3376169,16.6146176 69.1095438,16.8318102 68.2960137,16.9100665 L67.6967449,16.9728451 C67.5653357,16.9728451 67.5389776,17.0477562 67.5389776,17.0996476 L67.5389776,17.6679476 L67.5711971,17.7307128 L70.1582592,17.6679476 L77.0992182,17.6679476 C77.1511096,16.8280526 77.3197587,15.7676158 77.635296,14.480362 L76.9732553,14.3870378 C76.5522613,15.7249229 75.9864722,16.7841036 74.3861933,16.7841036 L72.1142493,16.7841036 C71.6409448,16.7841036 71.3576324,16.6526945 71.3576324,16.1530304 L71.3576324,11.7677481 L73.3445887,11.7677481 C74.0279724,11.7677481 74.2497677,12.0627779 74.3539697,12.5883931 L74.4811873,13.155437 C74.4811873,13.2349547 74.5389442,13.2822395 74.6695056,13.2822395 L75.1122606,13.2822395 L75.1750257,13.2504351 C75.1214604,12.646565 75.0172571,12.0770089 75.0172571,11.4212461 C75.0172571,10.7901742 75.1227138,10.0737313 75.1750257,9.49580556 C75.1750257,9.44391415 75.1641788,9.40080745 75.1122606,9.40080745 L74.6695056,9.40080745 C74.5653077,9.40080745 74.511737,9.44852077 74.511737,9.5280251 L74.3539683,10.0963251 C74.2485116,10.6206841 74.0790256,10.9157153 73.3445873,10.9157153 L71.3563749,10.9157153 L71.3563749,7.03554067 C71.3563749,6.58943791 71.6149977,6.49946423 72.113411,6.49946423 L74.2271685,6.49946423 C75.9082145,6.49946423 76.3944913,7.88840916 76.657718,8.83418002 L77.3197574,8.73918191 C77.1356252,7.74151831 76.9983627,6.7438547 76.9719979,5.61562561 L72.0824436,5.61562561 L70.1892266,5.61562561 L67.5711971,5.55285641 Z M79.9909357,16.9728397 L80.5948071,16.9184307 C81.3836476,16.8401718 81.6460361,16.6037317 81.6460361,15.7914564 L81.6460361,7.12927732 C81.6460361,6.44505659 81.4598108,6.44505659 80.5948071,6.36763728 L80.0193923,6.31324169 C79.9151943,6.31324169 79.8331684,6.26093515 79.8331684,6.18141742 L79.8331684,5.60516564 L79.859536,5.55160031 C79.859536,5.55160031 82.1703991,5.60516564 82.6437037,5.60516564 C83.1404431,5.60516564 85.4253605,5.55160031 86.108743,5.55160031 C90.4919335,5.55160031 92.6458663,8.28136441 92.6458663,11.7736055 C92.6458663,16.3677109 89.3896501,17.7307101 86.4774264,17.7307101 C84.3778972,17.7307101 83.459746,17.6788187 82.6457967,17.6788187 C81.8569562,17.6788187 79.861629,17.7307101 79.861629,17.7307101 L79.83569,17.6788187 L79.83569,17.1272578 C79.8331684,17.0511013 79.8867378,16.9728384 79.9909464,16.9728384 L79.9909357,16.9728397 Z M85.8463505,16.9728397 C88.7326272,16.9728397 90.3626188,15.8969198 90.3626188,12.2197096 C90.3626188,9.49120028 89.7574926,6.31324035 85.3471003,6.31324035 C84.3234909,6.31324035 83.667309,6.46975288 83.667309,7.12802657 L83.667309,15.7914618 C83.667309,16.5246439 83.8501864,16.9728397 85.8463505,16.9728397 M98.8431766,15.9220286 C98.8431766,16.498279 99.1051472,16.8401798 99.9450421,16.9184361 L100.496603,16.9728451 C100.574862,16.9728451 100.65437,17.0239062 100.65437,17.1281015 L100.65437,17.6796623 L100.628431,17.7332277 C100.628431,17.7332277 98.6331054,17.6796623 97.8204109,17.6796623 C97.0838809,17.6796623 95.0374993,17.7332277 95.0374993,17.7332277 L94.9843491,17.6796623 L94.9843491,17.1281015 C94.9843491,17.0239035 95.062608,16.9728451 95.1680634,16.9728451 L95.6936772,16.9184361 C96.5595192,16.8401771 96.8227446,16.4200228 96.8227446,15.9220286 L96.8227446,7.18033713 C96.8227446,6.60366754 96.5059526,6.44380718 95.6936772,6.36764264 L95.1680634,6.31324704 C95.0634369,6.31324704 94.9843491,6.2881383 94.9843491,6.20779031 L94.9843491,5.60266413 L95.0102881,5.55035759 C95.0102881,5.55035759 97.0838716,5.60266413 97.8965647,5.60266413 C98.6046381,5.60266413 100.627167,5.55035759 100.627167,5.55035759 L100.651861,5.60266413 L100.651861,6.18017068 C100.651861,6.25884476 100.598711,6.31199496 100.494093,6.31199496 L99.9425326,6.36556028 C99.1290011,6.44256044 98.840667,6.6534766 98.840667,7.1790904 L98.8432114,15.9207818 L98.8432114,15.9207818 L98.8431766,15.9220286 Z M106.929523,16.9184361 L107.691163,16.9728451 C107.79579,16.9728451 107.901241,17.051104 107.901241,17.1816681 L107.901241,17.6796623 L107.847676,17.7332277 C107.847676,17.7332277 104.986506,17.6796623 104.356691,17.6796623 C103.673307,17.6796623 101.993517,17.7332277 101.993517,17.7332277 L101.940367,17.6796623 L101.940367,17.1816681 C101.940367,17.0511027 102.018626,16.9728451 102.151281,16.9728451 C103.306714,16.8933273 103.96164,16.6824179 104.696076,15.0026266 L110.523035,1.35212949 C110.810114,0.669166198 111.021029,0.405521672 111.416077,0.405521672 C111.782668,0.405521672 111.915327,0.669166198 112.124151,1.19436219 L117.505005,15.4211097 C117.874106,16.4459738 118.398466,16.8389304 119.448021,16.9443871 L119.737612,16.9694959 C119.868177,16.9694959 120,17.0477548 120,17.1804107 L120,17.6775679 L119.921326,17.7307181 C119.921326,17.7307181 117.900053,17.6775679 116.876442,17.6775679 C115.957036,17.6775679 113.384203,17.7307181 113.384203,17.7307181 L113.359094,17.6775679 L113.359094,17.1804107 C113.359094,17.0477562 113.4114,16.9694959 113.544063,16.9694959 L114.279756,16.9171893 C115.276163,16.8389304 115.645266,16.522141 115.381622,15.7877028 L113.780506,11.3513648 L108.320976,11.3513648 C107.69116,11.3513648 107.533392,11.4555627 107.402825,11.7962128 L105.879965,15.6027337 C105.616321,16.2610074 105.958224,16.8401878 106.92952,16.9184441 L106.929523,16.9184361 Z M113.360351,10.2490733 L110.814719,3.24199326 L110.761154,3.24199326 L108.137266,9.90884646 C108.031809,10.1733279 108.214266,10.2503281 108.792192,10.2503281 L113.360351,10.2503281 L113.360351,10.2490733 Z M85.4349809,21.209142 C85.2177882,21.0145486 85.1073097,20.7785237 85.1073097,20.5031617 C85.1073097,20.2290559 85.2177882,19.9917749 85.4349809,19.7971814 C85.6555214,19.5992388 85.9225137,19.5021503 86.2355388,19.5021503 C86.5452174,19.5021503 86.8155562,19.5992375 87.0360967,19.7971814 C87.2604042,19.9917749 87.370884,20.2290559 87.370884,20.5031617 C87.370884,20.7785237 87.2604056,21.0145486 87.0360967,21.209142 C86.8155562,21.3999712 86.5452174,21.4970584 86.2355388,21.4970584 C85.9225137,21.4970584 85.6555214,21.3999712 85.4349809,21.209142" id="wikipedia-wordmark-mad" fill="#000000" fill-rule="nonzero"></path>
    </g>
</svg>

<svg xmlns="http://www.w3.org/2000/svg" width="120" height="22"><path fill="#000" fill-rule="nonzero" d="M18.135.286h.594l.184.001h.337l.152.001h.37l.091.001h.171l.059.055v.5c0 .138-.079.207-.232.207-.753.035-.907.11-1.184.507-.15.217-.447.682-.754 1.204L15.28 7.705l-.035.073-.04.082 3.23 6.609.195.053 5.089-12.076c.177-.486.15-.832-.078-1.035-.228-.197-.388-.315-.978-.339l-.478-.023a.275.275 0 0 1-.167-.062.173.173 0 0 1-.08-.146V.338l.073-.051h5.748l.058.051v.503c0 .137-.077.205-.231.205-.753.033-1.31.197-1.673.489-.361.293-.645.699-.848 1.224 0 0-1.444 3.306-3.002 6.855l-.269.61c-1.164 2.65-2.349 5.336-3.01 6.806-.612 1.167-1.214 1.06-1.745-.033a246.384 246.384 0 0 1-1.917-4.117l-.235-.513-.901-1.978c-.28.578-.588 1.21-.902 1.852l-.247.503c-.04.084-.082.167-.123.251l-.246.5a129.803 129.803 0 0 1-1.782 3.517c-.716 1.242-1.304 1.08-1.773.032C7.287 13.206 3.948 6.469 2.376 2.693c-.29-.696-.51-1.143-.717-1.32-.209-.174-.64-.28-1.297-.314C.12 1.032 0 .974 0 .88V.354L.058.3h.105L.431.3h.16l.57-.001h3.62L4.996.3l1.006.001h.306l.058.053v.5c0 .138-.087.205-.26.205l-.652.027c-.56.023-.84.19-.84.5 0 .145.06.38.189.695.518 1.262 1.563 3.563 2.609 5.827l.261.565c1.39 3 2.707 5.776 2.707 5.776l.157.041 2.788-5.56-.559-1.235-1.916-3.766-.028-.056c-.088-.18-.363-.738-.469-.947-.84-1.668-.823-1.756-1.673-1.869-.239-.03-.362-.062-.362-.18V.349l.07-.051h.332l.182-.001 1.457-.001h2.99l.132.043v.526c0 .12-.087.181-.262.181l-.359.052c-.909.07-.76.443-.157 1.645l1.838 3.76 2.034-4.054c.318-.693.278-.9.158-1.065l-.027-.035c-.08-.096-.351-.25-.94-.276l-.232-.024a.276.276 0 0 1-.166-.06.175.175 0 0 1-.079-.147v-.5L15.36.29c.298-.002.673-.004 1.08-.004Zm10.668 5.316h.119c.708 0 2.73-.052 2.73-.052l.025.053v.577c0 .079-.052.132-.157.132l-.552.054c-.814.077-1.102.287-1.102.813v8.743c0 .576.264.918 1.103.996l.55.055c.08 0 .158.05.158.155v.552l-.025.053s-1.819-.049-2.692-.053h-.118c-.734 0-2.781.053-2.781.053l-.054-.053v-.552c0-.104.08-.155.184-.155l.526-.055c.866-.078 1.128-.498 1.128-.996V7.18c0-.576-.316-.736-1.128-.812l-.526-.055c-.104 0-.184-.025-.184-.105v-.605l.028-.053s1.889.048 2.768.052Zm8.81 10.32c0 .576.34.866 1.103.996l.29.055c.077.025.157.05.157.155v.552l-.028.053s-1.653-.053-2.44-.053c-.735 0-2.888.053-2.888.053l-.053-.053v-.552c0-.104.08-.155.185-.155l.525-.055c.787-.078 1.128-.498 1.128-.996V7.18c0-.576-.288-.736-1.128-.812l-.525-.055c-.106 0-.185-.025-.185-.105v-.605l.027-.053s2.153.053 2.965.053c.737 0 2.39-.053 2.39-.053l.026.053v.577c0 .079-.053.105-.158.132l-.288.054c-.814.156-1.102.287-1.102.813v3.965c.866 0 1.364-.445 2.519-1.68 1.05-1.157 1.864-2.126 1.864-2.625 0-.211-.236-.446-.762-.526-.104-.026-.158-.053-.158-.132v-.604l.028-.025s2.126.052 2.887.052c.682 0 1.837-.052 1.837-.052l.079.025v.604c0 .079-.08.132-.21.132-1.024.079-1.733.13-2.678 1.207l-2.257 2.598c-.446.474-.604.76-.604.972 0 .158.105.287.236.445l3.963 4.778c.316.366.946.525 1.47.629l.132.025c.078.026.184.078.184.158v.551l-.079.026s-1.391-.026-2.125-.026c-.658 0-1.602.026-1.602.026l-.026-.026v-.315c0-.343-.027-.629-.393-1.049l-2.915-3.624c-.394-.525-.814-.655-1.39-.655v3.889Zm14.153 0c0 .576.261.918 1.101.996l.552.055c.078 0 .158.05.158.155v.552l-.027.053s-1.995-.053-2.808-.053c-.736 0-2.783.053-2.783.053l-.052-.053v-.552c0-.104.078-.155.183-.155l.525-.055c.866-.078 1.13-.498 1.13-.996V7.18c0-.576-.316-.736-1.13-.812l-.525-.055c-.105 0-.183-.025-.183-.105v-.605l.026-.053s2.073.053 2.887.053c.708 0 2.73-.053 2.73-.053l.026.053v.577c0 .079-.052.132-.158.132l-.55.054c-.814.077-1.104.287-1.104.813v8.742l.002.001Zm5.67-8.69c0-.815-.34-.84-1.574-.919-.158 0-.184-.078-.184-.132v-.603l.052-.026c.394 0 1.943.052 2.704.052.735 0 1.786-.052 2.756-.052 3.726 0 4.408 1.836 4.408 3.203 0 1.576-.761 4.042-4.486 4.042-.656 0-1.181-.053-1.655-.262v3.515c0 .578.316.71 1.156.84l.526.08c.105.025.184.053.184.156v.552l-.026.053s-2.1-.053-2.914-.053c-.734 0-2.703.053-2.703.053l-.026-.053v-.552c0-.105.052-.13.157-.157l.551-.079c.814-.105 1.076-.34 1.076-.84l-.001-8.819Zm2.022 4.568c.524.21 1.182.236 1.706.236 1.577 0 2.335-.947 2.335-2.966 0-2.258-1.024-2.756-2.467-2.756-1.26 0-1.575.237-1.575.919l.001 4.568V11.8ZM72.082 0c-.893 0-1.493.473-1.704.631l-.063.283 2.997 2.872c.422.394.6.505.757.505.211 0 .41-.153.41-.284 0-.184-.025-.369-.157-.631L72.492.063a1.935 1.935 0 0 0-.41-.063Zm-4.51 5.553-.033.063v.568c0 .026 0 .068.158.094l.599.062c.735.054 1.042.218 1.042.822v8.928c0 .525-.228.742-1.042.82l-.6.063c-.13 0-.157.075-.157.127v.568l.032.063 2.587-.063H77.1c.052-.84.22-1.9.536-3.188l-.662-.093c-.42 1.338-.987 2.397-2.587 2.397h-2.272c-.473 0-.756-.131-.756-.631v-4.385h1.987c.683 0 .905.295 1.009.82l.127.567c0 .08.058.127.189.127h.442l.063-.032c-.054-.603-.158-1.173-.158-1.829 0-.63.106-1.347.158-1.925 0-.052-.01-.095-.063-.095h-.442c-.105 0-.158.048-.158.127l-.158.568c-.105.525-.275.82-1.01.82h-1.988v-3.88c0-.447.259-.537.757-.537h2.114c1.681 0 2.167 1.39 2.43 2.335l.663-.095c-.184-.997-.322-1.995-.348-3.123H70.189l-2.618-.063Zm12.419 11.42.604-.055c.789-.078 1.051-.314 1.051-1.127V7.13c0-.684-.186-.684-1.051-.761l-.576-.055c-.104 0-.186-.052-.186-.132v-.576l.027-.053s2.31.053 2.784.053c.496 0 2.781-.053 3.465-.053 4.383 0 6.537 2.73 6.537 6.222 0 4.594-3.256 5.957-6.169 5.957-2.1 0-3.017-.052-3.831-.052-.789 0-2.784.052-2.784.052l-.026-.052v-.552a.147.147 0 0 1 .155-.154Zm5.855 0c2.887 0 4.517-1.076 4.517-4.753 0-2.729-.606-5.907-5.016-5.907-1.024 0-1.68.157-1.68.815v8.663c0 .734.183 1.182 2.18 1.182m12.996-1.051c0 .576.262.918 1.102.996l.552.055c.078 0 .157.05.157.155v.552l-.026.053s-1.995-.053-2.808-.053c-.736 0-2.783.053-2.783.053l-.053-.053v-.552c0-.104.079-.155.184-.155l.526-.055c.866-.078 1.129-.498 1.129-.996V7.18c0-.576-.317-.736-1.13-.812l-.525-.055c-.105 0-.184-.025-.184-.105v-.605l.026-.053s2.074.053 2.887.053c.708 0 2.73-.053 2.73-.053l.025.053v.577c0 .079-.053.132-.158.132l-.551.054c-.814.077-1.102.287-1.102.813l.002 8.742v.001Zm8.087.996.761.055c.105 0 .21.078.21.209v.498l-.053.053s-2.861-.053-3.491-.053c-.684 0-2.363.053-2.363.053l-.054-.053v-.498c0-.13.079-.21.211-.21 1.156-.079 1.81-.29 2.545-1.97l5.827-13.65c.287-.683.498-.946.893-.946.367 0 .5.263.708.788l5.381 14.227c.37 1.025.893 1.418 1.943 1.523l.29.025c.13 0 .262.079.262.211v.498l-.079.053s-2.02-.053-3.045-.053c-.919 0-3.492.053-3.492.053l-.025-.053v-.498c0-.132.052-.21.185-.21l.736-.053c.996-.078 1.365-.395 1.102-1.13l-1.601-4.436h-5.46c-.63 0-.788.105-.918.445l-1.523 3.807c-.264.658.078 1.237 1.05 1.315Zm6.43-6.669-2.545-7.007h-.054l-2.624 6.667c-.105.264.077.341.655.341h4.568ZM85.435 21.21a.917.917 0 0 1-.328-.706c0-.274.11-.511.328-.706.22-.198.488-.295.8-.295.31 0 .58.097.801.295a.904.904 0 0 1 .335.706c0 .276-.11.512-.335.706-.22.191-.49.288-.8.288-.313 0-.58-.097-.801-.288"/></svg>
